X:257
T:Reel 257
M:4/4
K:Gmaj
L:1/8
B>G (3GFG D>G (3GFG |AFcB AFcA|B>G (3GFG D>G (3GFG |AF (3FED E2Ac|B>G (3GFG D>G (3GFG |AFFG ABcA|BAGF GABd| (3efg dc BGG2||d>g (3gfg b>g (3gfg |d=fcA AFc2|d>g (3gfg agfg|dc=fc AGG2|dgg (3gfg g>g (3gfg |d=fef cAAc=fe|dggf gagf|d=fec dcBGG2|
